X:605
T:Didn't You Promise Your Own Sweet Bride I Would Be
O:ireland
B:Joyce, P. W.; "Old Irish Folk Music and Songs"
R:song air
L:1/8
M:3/4
K:C
G2|\
c4 Bc|A4 GE|D2 DE GF|ED C2 C2|C4 zF| E2 DCDE|G2 G2 (3ABc|
d3 ced|cA GE D2|D4 zF|E2 DCDE|G2 G2 (3ABc|d3 ced|
cA G2 F2| E4 ((3GAB)|c4 Bc|A4 GE|D2 DE GF|ED C2 C2|C4||
